X:25
T:The Auld Wheel
C: J. Scott Skinner
R: reel
M:C|
L:1/8
Z: Jason R. Fruit <jason@starlight-glimmer>
K:D
A |d/d/d (AGFG) .A.d | B/B/B (ed) cAAc | d/d/d (AF) GABd | cdec dDDA | d/d/d (AG FG).A.d |
B/B/B (ed) cAAc | d/d/d (AF) GABg | fedc dDD || !f!g | !>!fDFA dfaf | !>!eEGB efge |
fDFA dfaf | efga fddg | fDFA dfaf !>!eEG!<(!B efg!<)!a | !>(!bagf edcB | AGF!>)!E DABc & x4 D2-D!D.S.!||

